icons/4_Outdated/OnlyFans v1.svg

<svg width="1024" height="1024" viewBox="0 0 1024 1024" fill="none" xmlns="http://www.w3.org/2000/svg">
<g clip-path="url(#clip0_3_614)">
<path d="M512 1024C794.77 1024 1024 794.77 1024 512C1024 229.23 794.77 0 512 0C229.23 0 0 229.23 0 512C0 794.77 229.23 1024 512 1024Z" fill="#9ABEFF"/>
<path d="M512 229.781C358.73 229.781 234.5 356.131 234.5 512.001C234.5 667.871 358.74 794.221 512 794.221C665.26 794.221 789.5 667.861 789.5 512.001C789.5 356.141 665.26 229.781 512 229.781ZM512 764.781C374.73 764.771 263.45 651.601 263.45 512.001C263.45 372.401 374.73 259.231 512 259.231C649.27 259.231 760.53 372.401 760.53 512.001C760.53 651.601 649.27 764.771 512 764.771V764.781ZM627.09 493.781V470.721C627.011 443.307 616.091 417.037 596.714 397.644C577.336 378.252 551.074 367.311 523.66 367.211H505.12C477.71 367.317 451.455 378.26 432.083 397.652C412.711 417.044 401.796 443.311 401.72 470.721V493.801L388.93 517.351V551.351C388.964 581.888 401.103 611.166 422.685 632.769C444.267 654.371 473.533 666.538 504.07 666.601H524.73C555.261 666.501 584.512 654.319 606.088 632.718C627.665 611.117 639.814 581.853 639.88 551.321V517.321L627.09 493.781ZM526.49 598.001V625.201C526.491 627.181 526.002 629.13 525.067 630.875C524.131 632.62 522.779 634.106 521.13 635.201L521.05 635.281L520.97 635.361H520.89L520.81 635.441H520.73L520.64 635.521L520.56 635.601H520.48L520.32 635.681L520.24 635.761L520.16 635.841H520L519.92 635.921H519.84L519.76 636.001L519.68 636.081H519.6L519.44 636.161H519.34L519.26 636.241L519.18 636.321H519.02L518.94 636.401H518.8L518.72 636.481H518.64L518.56 636.561H518.4L518.31 636.641H518.25L518.17 636.721H518L517.92 636.801H517.76L517.68 636.881H517.44L517.36 636.961H517V637.041H516.76L516.52 637.121H516.2C515.603 637.255 514.991 637.309 514.38 637.281H514.3C513.905 637.295 513.51 637.268 513.12 637.201C512.61 637.201 512.104 637.12 511.62 636.961H511.54L511.38 636.881H511.28L511.04 636.801L510.72 636.721H510.56L510.47 636.641H510.39L510.23 636.561H510.15C509.975 636.47 509.795 636.39 509.61 636.321L509.37 636.241V636.161H509.21L509.13 636.081H509.05L508.97 636.001L508.81 635.921H508.73L508.57 635.841L508.49 635.761L508.33 635.681L508.25 635.601L508.09 635.521H508.01V635.441H508L507.84 635.361C506.142 634.26 504.747 632.752 503.781 630.974C502.815 629.196 502.31 627.205 502.31 625.181V598.001C495.34 595.202 489.556 590.073 485.945 583.487C482.334 576.901 481.118 569.266 482.505 561.885C483.892 554.503 487.797 547.83 493.552 543.005C499.308 538.179 506.559 535.499 514.07 535.421H514.7C522.202 535.511 529.442 538.195 535.189 543.017C540.936 547.84 544.837 554.503 546.228 561.876C547.62 569.248 546.416 576.875 542.821 583.46C539.227 590.046 533.463 595.184 526.51 598.001H526.49ZM580.95 494.491H447.88V470.721C447.917 455.55 453.955 441.011 464.676 430.277C475.397 419.543 489.929 413.487 505.1 413.431H523.66C538.852 413.455 553.415 419.497 564.162 430.234C574.908 440.972 580.963 455.53 581 470.721L580.95 494.491Z" fill="white"/>
</g>
<defs>
<clipPath id="clip0_3_614">
<rect width="1024" height="1024" fill="white"/>
</clipPath>
</defs>
</svg>

<svg xmlns="http://www.w3.org/2000/svg" viewBox="0 0 1024 1024">
   <circle cx="512" cy="512" r="512" style="fill:#00aff0"/>
   <path d="M512 229.78c-153.27 0-277.5 126.35-277.5 282.22S358.74 794.22 512 794.22 789.5 667.86 789.5 512 665.26 229.78 512 229.78zm0 535C374.73 764.77 263.45 651.6 263.45 512S374.73 259.23 512 259.23 760.53 372.4 760.53 512 649.27 764.77 512 764.77zm115.09-271v-23.06a103.81 103.81 0 0 0-103.43-103.51h-18.54a103.8 103.8 0 0 0-103.4 103.51v23.08l-12.79 23.55v34A115.38 115.38 0 0 0 504.07 666.6h20.66a115.53 115.53 0 0 0 115.15-115.28v-34zM526.49 598v27.2a12 12 0 0 1-5.36 10l-.08.08-.08.08h-.08l-.08.08h-.08l-.09.08-.08.08h-.08l-.16.08-.08.08-.08.08H520l-.08.08h-.08l-.08.08-.08.08h-.08l-.16.08h-.1l-.08.08-.08.08h-.16l-.08.08h-.14l-.08.08h-.08l-.08.08h-.16l-.09.08h-.06l-.08.08H518l-.08.08h-.16l-.08.08h-.24l-.08.08H517v.08h-.24l-.24.08h-.32a6.88 6.88 0 0 1-1.82.16h-.08a5.85 5.85 0 0 1-1.18-.08 4.82 4.82 0 0 1-1.5-.24h-.08l-.16-.08h-.1l-.24-.08-.32-.08h-.16l-.09-.08h-.08l-.16-.08h-.08a4.87 4.87 0 0 0-.54-.24l-.24-.08v-.08h-.16l-.08-.08h-.08l-.08-.08-.16-.08h-.08l-.16-.08-.08-.08-.16-.08-.08-.08-.16-.08h-.08v-.08H508l-.16-.08a12.13 12.13 0 0 1-5.53-10.18V598a32.46 32.46 0 0 1 11.76-62.58h.63A32.48 32.48 0 0 1 526.51 598zm54.46-103.51H447.88v-23.77a57.43 57.43 0 0 1 57.22-57.29h18.56A57.43 57.43 0 0 1 581 470.72z" style="fill:#fff"/>
</svg>
